X:1
T:Shepherds, rejoice, and send your fears away
T:Shepherds, rejoice, and send your fears away - Christmas (James Leach)
C:James Leach
Z:p111, A Collection of
Z:Hymn Tunes and
Z:Anthems,
Z:London: [1798]
%%score [ 1 2 3 4 ]
L:1/8
M:3/4
K:C
V:1 treble nm="[Treble]" snm="S."
V:2 treble nm="[Alto]" snm="A."
V:3 treble-8 transpose=-12 nm="[Tenor]" snm="T."
V:4 bass nm="[Bass]" snm="B."
V:1
"^Chorus" e2 e2 B2 | c4 B2 | c4 B2 | c2 z2 e2 | B2 z2 B2 | c2 z2 c2 | c3 c fe | (e2 d2) B2 | %8
w: Shep- herds, re-|joice, re-|joice, re-|joice, re-|joice, re-|joice, and|send your fears a-|way, _ and|
 c4 c2 | (B>c d2) c2 | B6 |[M:2/2] G4 G2 G2 | (_B2 c2) z4 | A4 A2 d2 | d4 z4 | c4 c2 c2 | c6 c2 | %17
w: send your|fears _ _ a-|way:|news from the|sky, _|news from the|sky,|news from the|sky; a|
 B4 c4 | d6 d2 | e8 ||[M:3/2]"^Duett Treble and Bass" e4 A4 ^G4 | c8 G4 | E3 F G4 c4 | (c4 B4) d4 | %24
w: sa- viour’s|born to-|day.|Je- sus the|God comes|down to dwell with|you: _ to-|
 e8 e4 | (d4 B4) G4 | e3 c (B2 A2) (G2 F2) | (F4 E4) g4 | (e4 c4) e4 | (d4 B4) G4 | e3 c B4 A4 | %31
w: day he|comes, _ but|not as mon- * archs _|do, _ to-|day _ he|comes, _ but|not as mon- archs|
 G8 G4 | d8 e4 | (d3 c/d/) G4 z4 | c3 B A4 (d3 c) | (c4 B4) d4 | (e4 c4) G4 | A8 B4 | %38
w: do. No|gold, no|pur- * * ple,|roy- al shin- ing _|things; _ a|man- * ger|stands, and|
 c3 B (A2 G2) (F2 E2) | (E4 D4) e4 | (g4 e4) c4 | A8 A4 | (f4 d4) B4 | (G4 c4) B4 | c8 || %45
w: holds the King _ of _|Kings, _ A|man- * ger|stands, and|holds _ the|King _ of|Kings.|
[M:6/8]"^Trio" e | (c>d)B c2 d | (e>f)d e2 g | f2 e (dc)d | e3 z2 G | (c>dc/d/ e>fe/f/ | %51
w: Thus|Ga- * briel sung, thus|Ga- * briel sung: the|heav’n- ly an- * gels|throng. They|tune _ _ _ _ _ _ _|
 ge)c d2 G | (c>dc/d/ e>fe/f/ | ge)c d2 G | (cG)_B A2 A | (dA)c B2 d | e2 e f2 e | (dB)G (c>d)B | %58
w: _ _ their harps, they|tune _ _ _ _ _ _ _|_ _ their harps, they|tune _ their harps, they|tune _ their harps, they|tune their harps, and|thus _ con- clude _ the|
 c3 ||[M:4/4]"^Chorus" e2 e>d c2 z2 | c2 d>e B2 z2 | (ed)cB c2 z2 | (ed)cB c2 z2 | e2 c>c c2 z2 | %64
w: song:|Glo- ry to God,|glo- ry to God,|glo- * ry to God,|glo- * ry to God,|glo- ry to God,|
 (cGEG cBcd | e2) e>d c3 c | B2 c2 d2 B2 | c2 z g (e/f/e/d/ c)G | (c/d/c/d/ e)g (g/d/e/f/ g)d | %69
w: glo- * * * * * * *|* ry to God, who|reigns en- thron’d a-|bove, who reigns _ _ _ _ en-|thron’d, _ _ _ _ en- thron’d, _ _ _ _ who|
 g3 c d3 d | d2 z c B2 c2 | B2 z c d2 e2 | d2 z!p! d (e2 d2 | c2) z B (c2 d2 | edc)f (e2 d>)c | %75
w: reigns en- thron’d a-|bove: good- will to|men, good- will to|men, and peace, _|_ and peace _|_ _ _ and end- * less|
 c2 z!f! c G2 c2 | d2!p! z e B2 z c | d2 z c c3 c | c3 d e2 z c | (cB) z e (ed) z d | (e2 d2 c4) | %81
w: love. Good- will to|men, and peace, and|peace, and peace and|end- less love. Good-|will _ to men, _ and|peace, _ _|
 z4 ^G2 (AB) | A2 ^G2 A2 z d | e2 z B c3 c | (B<d) d2 d2 z!f! d | e2 d2 c2 z2 | z8 | z8 | %88
w: peace and _|end- less love, and|peace, and peace, and|end- * less love. Good-|will to men,|||
 z4 z2 z d | (e4 B4 | c4) (A4 | G2) (GA) G3 G | G4 |] %93
w: and|peace, _|_ peace|_ and _ end- less|love.|
V:2
 G2 G2 G2 | G4 G2 | G4 G2 | G2 z2 G2 | G2 z2 G2 | G2 z2 G2 | A3 G FA | G4 G2 | G4 G2 | G4 ^F2 | %10
w: Shep- herds, re-|joice, re-|joice, re-|joice, re-|joice, re-|joice, and|send your fears a-|way, and|send your|fears a-|
 G6 |[M:2/2] E4 E2 G2 | (G2 F2) z4 | F4 F2 A2 | G4 z4 | G4 G2 G2 | A6 G2 | G4 G4 | G6 G2 | [EG]8 || %20
w: way:|news from the|sky, _|news from the|sky,|news from the|sky; a|sa- viour’s|born to-|day.|
[M:3/2] z12 | z12 | z12 | z12 | z12 | z12 | z12 | z12 | z12 | z12 | z12 | z12 | z12 | z12 | z12 | %35
w: |||||||||||||||
 z12 | z12 | z12 | z12 | z12 | z12 | z12 | z12 | z12 | z8 ||[M:6/8] c | (e>f)d e2 B | (c>d)B c2 d | %48
w: ||||||||||Thus|Ga- * briel sung, thus|Ga- * briel sung: the|
 c2 G A2 B | c3 z2 d | (e>fe/d/ c>dc/d/ | ec)c B2 z | z2 G (c>dc/d/ | ec)c B2 G | G2 G c2 c | %55
w: heav’n- ly an- gels|throng. They|tune _ _ _ _ _ _ _|_ _ their harps,|they tune _ _ _|_ _ their harps, they|tune their harps, they|
 A2 (A/B/) d2 B | c2 G A2 c | B2 c (e>f)d | e3 ||[M:4/4] G2 G>G G2 z2 | G2 G>G G2 z2 | %61
w: tune their _ harps, they|tune their harps, and|thus con- clude _ the|song:|Glo- ry to God,|glo- ry to God,|
 (GA)ED C2 z2 | (GA)ED C2 z2 | G2 F>A G2 z2 | z8 | G2 G>G G3 G | G2 G2 G2 G2 | G2 z2 z2 z G | %68
w: glo- * ry to God,|glo- * ry to God,|glo- ry to God,||glo- ry to God, who|reigns en- thron’d a-|bove, who|
 (E/F/E/D/ C)G, (C/D/C/D/ E)G | (C/D/C/D/ E)G A3 A | B2 z G G2 G2 | G2 z G G2 G2 | %72
w: reigns _ _ _ _ en- thron’d, _ _ _ _ who|reigns _ _ _ _ en- thron’d a-|bove: good- will to|men, good- will to|
 G2"^["!p!"^]" z G G4- | G8- | G3 A G3 F | E2"^["!f!"^]" z G G2 ^F2 | G2"^["!p!"^]" z G G2 z G | %77
w: men, and peace|_|* and end- less|love. Good- will to|men, and peace, and|
 G2 z E E3 E | A3 A ^G2 z2 | G8 | (G8 | AGFE EDE)F | E2 E2 E2 z G | G2 z2 z2 z G | %84
w: peace, and peace and|end- less love.|Peace,|peace|_ _ _ _ _ _ _ and|end- less love, and|peace and|
 G2 ^F2 G2"^["!f!"^]" z G | G2 G2 G2 z B, | (CB,C)D (EDEF | G2 A/G/F/E/ EDE)F | (E2 D>)C C2 z G | %89
w: end- less love. Good-|will to men, and|peace, _ _ and peace _ _ _|_ _ _ _ _ _ _ _ and|end- * less love, and|
 G8- | G4 (AGFE | D2) (GF) (E2 D>)E | E4 |] %93
w: peace,|_ peace _ _ _|_ and _ end- * less|love.|
V:3
 c2 c2 d2 | e4 f2 | (e>d c2) d2 | e2 z2 c2 | d2 z2 d2 | e2 z2 e2 | f3 e dc | (c2 B2) d2 | e4 e2 | %9
w: Shep- herds, re-|joice, re-|joice, _ _ re-|joice, re-|joice, re-|joice, and|send your fears a-|way, _ and|send your|
 (d>c) B2 A2 | G6 |[M:2/2] c4 G2 _B2 | (_B2 A2) z4 | d4 A2 c2 | (c2 B2) z4 | e4 e2 e2 | f6 e2 | %17
w: fears _ _ a-|way:|news from the|sky, _|news from the|sky, _|news from the|sky; a|
 d4 e4 | B6 c2 | c8 ||[M:3/2] z12 | z12 | z12 | z12 | z12 | z12 | z12 | z12 | z12 | z12 | z12 | %31
w: sa- viour’s|born to-|day.||||||||||||
 z12 | z12 | z12 | z12 | z12 | z12 | z12 | z12 | z12 | z12 | z12 | z12 | z12 | z8 ||[M:6/8] z | %46
w: |||||||||||||||
 z6 | z6 | z6 | z6 | z6 | z6 | z6 | z6 | z6 | z6 | z6 | z6 | z3 ||[M:4/4] c2 c>d e2 z2 | %60
w: |||||||||||||Glo- ry to God,|
 e2 d>c d2 z2 | z8 | z8 | c2 c>f e2 z2 | (edcd edef | g2) c>d e3 e | d2 e2 d2 f2 | e2 z2 z4 | %68
w: glo- ry to God,|||glo- ry to God,|glo- * * * * * * *|* ry to God, who|reigns en- thron’d a-|bove,|
 z4 z2 z g | (e/f/e/d/ c)e ^f3 f | g2 z e d2 e2 | d2 z c B2 c2 | B2"^["!p!"^]" z G (c2 d2 | %73
w: who|reigns _ _ _ _ en- thron’d a-|bove: good- will to|men, good- will to|men, and peace, _|
 e2) z G (e2 d2 | cBc)d (c2 B>)c | c2"^["!f!"^]" z e d2 c2 | B2"^["!p!"^]" z c d2 z e | %77
w: _ and peace _|_ _ _ and end- * less|love. Good- will to|men, and peace, and|
 B2 z G A3 c | A3 A B2 z e | (ed) z c (cB) z B | (c2 d2 e4 | fedc cBc)d | c2 B2 A2 z G | %83
w: peace, and peace and|end- less love. Good|will _ to men, _ and|peace _ _|_ _ _ _ _ _ _ and|end- less love, and|
 c2 z d e3 e | (d<B) A2 G2"^["!f!"^]" z G | c2 d2 e2 z G | (AGA)B (cBcd | e2 f/e/d/c/ cBc)d | %88
w: peace, and peace, and|end- * less love. Good-|will to men, and|peace, _ _ and peace _ _ _|_ _ _ _ _ _ _ _ and|
 (c2 B>)c c2 z G | (c4 d4 | e4) (fedc | B2) (cd) (c2 B>)c | c4 |] %93
w: end- * less love, and|peace, _|_ peace _ _ _|_ and _ end- * less|love.|
V:4
 C2"^6" E,2 G,2 | (C2"^6" E,2)"^7" G,2 | C4 G,2 | (C,>B,, C,D, E,F, | G,^F, G,A, B,G, | %5
w: Shep- herds, re-|joice, _ re-|joice, re-|joice, _ _ _ _ _|_ _ _ _ _ _|
 C3 B,)"^7" (A,G,) | F,3"^64" G,"^64" A,"^7"^F, |"^64""^-3" G,4 G,2 | C4 C,2 |"^64" D,4"^7#" D,2 | %10
w: * * and _|send your fears a-|way, and|send your|fears a-|
 G,,6 |[M:2/2] C,4 C,2"^!7" C,2 |"^742""^3" F,4 z4 | D,4 D,2"^7" D,2 |"^64""^-3" G,4 z4 | %15
w: way:|news from the|sky,|news from the|sky,|
 C4 C2"^42" B,2 |"^6" A,6"^6" E,2 | G,4 C4 | G,6 G,2 | C,8 ||[M:3/2] A,,4"^65" D,4"^#" E,4 | %21
w: news from the|sky; a|sa- viour’s|born to-|day.|Je- sus the|
 A,,8"^6" B,,4 | C,3 D,"^6" E,4"^6" A,4 |"^64""^3" G,8"^6" B,4 | C8"^6" E,4 | G,8"^6" E,4 | %26
w: God comes|down to dwell with|you: to-|day he|comes, but|
 C,3 E, G,4"^7" G,,4 |"^54""^3" C,8"^6" E,4 | A,8"^7" ^F,4 | G,8"^6" B,,4 | %30
w: not as mon- archs|do, to-|day he|comes, but|
 C,3 A,,"^64" D,4"^#" D,4 | G,,8 G,4 | (G,4"^42" F,4)"^6" E,4 | G,4 G,,4 z4 | A,3 G, F,4 D,4 | %35
w: not as mon- archs|do. No|gold, _ no|pur- ple,|roy- al shin- ing|
"^64""^3" G,8"^6" B,4 | C8"^6" E,4 | F,8"^6" D,4 | C,3 E, (F,2 E,2)"^6" (D,2 C,2) | %39
w: things; a|man- ger|stands, and|holds the King _ of _|
"^Notes: The alto part is printed in the source in the treble clef, an octave above sounding pitch.The semiquaver C and D in the soprano part in bar 33 are printed in the source as small semiquaver grace notes,slurred from the preceding D (which is printed as a minim), and have been written out editorially.""^64""^3" G,,8 C,4 | %40
w: Kings, A|
"^6" E,8 E,4 | (A,6 G,2) (F,2 E,2) | D,8 G,4 |"^6" E,8"^6" D,4 | C,8 ||[M:6/8] C, | %46
w: man- ger|stands, _ and _|holds the|King of|Kings.|Thus|
 A,2"^7" G, C,2 G, | C2 G, C2"^6" B, |"^6" A,2"^64" G,"^6" F,2 G, | C3 z2 G, | (C,E,)G, C2 B, | %51
w: Ga- briel sung, thus|Ga- briel sung: the|heav’n- ly an- gels|throng. They|tune _ their harps, they|
 C2 A, G,2 z | z3 z2 G, | (CC,/D,/)(E,/F,/) G,2 G, | (C,"^6"E,)"^m"C, (F,A,)F, | %55
w: tune their harps,|they|tune _ _ their _ harps, they|tune _ their harps, _ they|
 (D,F,)D, (G,B,)G, | C2"^42" B,"^6" A,2"^6" E, | G,2 C"^64" G,2"^3" G,, | C,3 || %59
w: tune _ their harps, _ they|tune their harps, and|thus con- clude the|song:|
[M:4/4] C2"^6" E,>G, C2 z2 | C2"^6" B,>"^7"A, G,2 z2 | z8 | z8 | C2"^6" A,>F, C2 z2 | z8 | %65
w: Glo- ry to God,|glo- ry to God,|||glo- ry to God,||
 C2"^6" E,>G, C,3 C | G,2 C2 G,2"^7" G,2 | C2 z2 z4 | z2 z G,"^6" (E,/F,/E,/D,/ C,)G, | %69
w: glo- ry to God, who|reigns en- thron’d a-|bove,|who reigns, _ _ _ _ who|
 C3"^6" E,"^#" D,3 D, | G,2 z C G,2 C2 | G,2 z C, G,2 C,2 | G,2 z2 z2"^["!p!"^]" G,2 | C,2 z2 z4 | %74
w: reigns en- thron’d a-|bove: good- will to|men, good- will to|men, and|peace,|
 (CG,"^7"A,)F,"^64" G,3"^3" G, | C,2"^["!f!"^]" z C"^6" B,2"^´" A,2 | G,2"^["!p!"^]" z C G,2 z C, | %77
w: peace _ _ and end- less|love. Good- will to|men, and peace, and|
 G,2 z"^6" E, E,3 E, | F,3"^6" F,"^#" E,2 z2 | G,8 | C2 G,2 C,4 | z4"^#" E,2"^6" (C,"^6"D,) | %82
w: peace, and peace and|end- less love.|Peace,|peace, peace, peace,|peace and _|
"^64" E,2"^#" E,2 A,,2 z G, | C,2 z2 z2 z C, |"^64" D,2"^#" D,2 G,,2"^["!f!"^]" z G, | %85
w: end- less love, and|peace and|end- less love. Good-|
"^6" E,2 G,2 C2 z2 | z8 | z8 | z4 z2 z G, | (C,4 G,4 | C4) (F,4 | %91
w: will to men,|||and|peace, _|_ peace|
 G,"^42"F,)"^6"(E,"^6"F,)"^64" G,3"^3" G, | C,4 |] %93
w: _ _ and _ end- less|love.|

